icons/k3os/k3os-original.svg

<svg xmlns="http://www.w3.org/2000/svg" viewBox="0 0 128 128" fill="#FD824E"><path d="M113.4 12.7H14.6c-7.3 0-13.2 6-13.2 13.3v76c0 7.3 5.9 13.2 13.3 13.3h98.7c7.3 0 13.2-5.9 13.3-13.3V26c-.1-7.3-6-13.3-13.3-13.3zm-79.7 89.6c-6.7 0-12.2-5.4-12.2-12.1C21.5 83.4 27 78 33.7 78c2 0 4 .5 5.8 1.5l-9 5.2c-3 1.7-4 5.6-2.3 8.6 1.7 3 5.6 4 8.6 2.3l9-5.2c-.1 6.6-5.5 11.8-12.1 11.9zm24.1-22.7L35.2 92.7c-1.5.8-3.3.4-4.2-1.1-.8-1.5-.4-3.3 1.1-4.2l22.6-13.1c1.5-.8 3.3-.4 4.2 1.1s.4 3.4-1.1 4.2zm-.1-42V48c-5.7-3.5-7.5-11-4-16.7s11-7.5 16.7-4c5.7 3.5 7.5 11 4 16.7-1 1.7-2.4 3.1-4.1 4.1V37.7c0-3.5-2.8-6.3-6.3-6.3-3.5-.1-6.3 2.7-6.3 6.2zm9.2 26.2c0 1.7-1.4 3-3 3-1.7 0-3-1.4-3-3l.1-26.2c0-1.7 1.4-3 3-3 1.7 0 3 1.4 3 3l-.1 26.2zm2 11.6c.8-1.5 2.7-2 4.1-1.1l22.8 13.2c1.5.8 2 2.7 1.1 4.1-.8 1.5-2.7 2-4.1 1.1L70 79.6c-1.5-.9-2-2.7-1.1-4.2zm25.4 26.9c-6.6 0-12-5.3-12.1-11.9l9 5.2c3 1.7 6.9.7 8.6-2.3 1.7-3 .7-6.9-2.3-8.6l-9-5.2c1.8-1 3.8-1.5 5.8-1.5 6.7 0 12.2 5.4 12.2 12.1 0 6.7-5.5 12.1-12.2 12.2z"/></svg>

<svg version="1.1" xmlns="http://www.w3.org/2000/svg" viewBox="0 0 128 128" width="128px" height="128px" fill="#FD824E">
	<path d="M113.4,12.7H14.6C7.3,12.7,1.4,18.7,1.4,26v76c0,7.3,5.9,13.2,13.3,13.3h98.7c7.3,0,13.2-5.9,13.3-13.3V26
	C126.6,18.7,120.7,12.7,113.4,12.7z M33.7,102.3c-6.7,0-12.2-5.4-12.2-12.1C21.5,83.4,27,78,33.7,78c0,0,0,0,0,0c2,0,4,0.5,5.8,1.5
	l-9,5.2c-3,1.7-4,5.6-2.3,8.6c1.7,3,5.6,4,8.6,2.3c0,0,0,0,0,0l9-5.2C45.7,97,40.3,102.2,33.7,102.3z M57.8,79.6L35.2,92.7
	c-1.5,0.8-3.3,0.4-4.2-1.1c-0.8-1.5-0.4-3.3,1.1-4.2l22.6-13.1c1.5-0.8,3.3-0.4,4.2,1.1S59.3,78.8,57.8,79.6z M57.7,37.6l0,10.4
	c-5.7-3.5-7.5-11-4-16.7s11-7.5,16.7-4c5.7,3.5,7.5,11,4,16.7c-1,1.7-2.4,3.1-4.1,4.1l0-10.4c0-3.5-2.8-6.3-6.3-6.3
	C60.5,31.3,57.7,34.1,57.7,37.6C57.7,37.6,57.7,37.6,57.7,37.6L57.7,37.6z M66.9,63.8c0,1.7-1.4,3-3,3h0c-1.7,0-3-1.4-3-3L61,37.6
	c0-1.7,1.4-3,3-3h0c1.7,0,3,1.4,3,3L66.9,63.8z M68.9,75.4c0.8-1.5,2.7-2,4.1-1.1c0,0,0,0,0,0l22.8,13.2c1.5,0.8,2,2.7,1.1,4.1
	c-0.8,1.5-2.7,2-4.1,1.1c0,0,0,0,0,0L70,79.6C68.5,78.7,68,76.9,68.9,75.4C68.9,75.4,68.9,75.4,68.9,75.4z M94.3,102.3
	c-6.6,0-12-5.3-12.1-11.9l9,5.2c3,1.7,6.9,0.7,8.6-2.3c1.7-3,0.7-6.9-2.3-8.6l0,0l-9-5.2c1.8-1,3.8-1.5,5.8-1.5
	c6.7,0,12.2,5.4,12.2,12.1C106.5,96.8,101,102.2,94.3,102.3C94.3,102.3,94.3,102.3,94.3,102.3L94.3,102.3z" />
</svg>
